svgs/nintendo_today.svg

<svg width="192" height="192" viewBox="0 0 192 192" fill="none" xmlns="http://www.w3.org/2000/svg">
<path d="M26.7574 29.2426L29.2426 26.7574C30.3679 25.6321 31.894 25 33.4853 25H158.515C160.106 25 161.632 25.6321 162.757 26.7574L165.243 29.2426C166.368 30.3679 167 31.894 167 33.4853V158.515C167 160.106 166.368 161.632 165.243 162.757L162.757 165.243C161.632 166.368 160.106 167 158.515 167H33.4853C31.894 167 30.3679 166.368 29.2426 165.243L26.7574 162.757C25.6321 161.632 25 160.106 25 158.515V33.4853C25 31.894 25.6321 30.3679 26.7574 29.2426Z" stroke="black" stroke-width="12" stroke-linejoin="round"/>
<circle cx="45" cy="45" r="3" stroke="black" stroke-width="6"/>
<circle cx="45" cy="147" r="3" stroke="black" stroke-width="6"/>
<circle cx="147" cy="45" r="3" stroke="black" stroke-width="6"/>
<circle cx="147" cy="147" r="3" stroke="black" stroke-width="6"/>
<path d="M78 53H68.4853C66.894 53 65.3679 53.6321 64.2426 54.7574L59.7574 59.2426C58.6321 60.3679 58 61.894 58 63.4853V73C58 76.3137 60.6863 79 64 79H72C75.3137 79 78 76.3137 78 73V53ZM78 53H114M114 53H123.515C125.106 53 126.632 53.6321 127.757 54.7574L132.243 59.2426C133.368 60.3679 134 61.894 134 63.4853V83.5147C134 85.106 133.368 86.6321 132.243 87.7574L127.757 92.2426C126.632 93.3679 125.106 94 123.515 94H114M114 53V94M114 94H96.4853C94.894 94 93.3679 94.6321 92.2426 95.7574L87.7574 100.243C86.6321 101.368 86 102.894 86 104.485V113C86 116.314 88.6863 119 92 119H100C103.314 119 106 116.314 106 113V94" stroke="black" stroke-width="12"/>
<path d="M86 139H106" stroke="black" stroke-width="12" stroke-linecap="round"/>
</svg>

<svg xmlns="http://www.w3.org/2000/svg" width="192" height="192" fill="none" viewBox="0 0 192 192"><path stroke="#000" stroke-linejoin="round" stroke-width="12" d="m26.757 29.243 2.486-2.486A6 6 0 0 1 33.485 25h125.03a6 6 0 0 1 4.242 1.757l2.486 2.486A6 6 0 0 1 167 33.485v125.03a6 6 0 0 1-1.757 4.242l-2.486 2.486a6 6 0 0 1-4.242 1.757H33.485a6 6 0 0 1-4.242-1.757l-2.486-2.486A6 6 0 0 1 25 158.515V33.485a6 6 0 0 1 1.757-4.242Z"/><circle cx="45" cy="45" r="3" stroke="#000" stroke-width="6"/><circle cx="45" cy="147" r="3" stroke="#000" stroke-width="6"/><circle cx="147" cy="45" r="3" stroke="#000" stroke-width="6"/><circle cx="147" cy="147" r="3" stroke="#000" stroke-width="6"/><path stroke="#000" stroke-width="12" d="M78 53h-9.515a6 6 0 0 0-4.242 1.757l-4.486 4.486A6 6 0 0 0 58 63.485V73a6 6 0 0 0 6 6h8a6 6 0 0 0 6-6zm0 0h36m0 0h9.515a6 6 0 0 1 4.242 1.757l4.486 4.486A6 6 0 0 1 134 63.485v20.03a6 6 0 0 1-1.757 4.242l-4.486 4.486A6 6 0 0 1 123.515 94H114m0-41v41m0 0H96.485a6 6 0 0 0-4.242 1.757l-4.486 4.486A6 6 0 0 0 86 104.485V113a6 6 0 0 0 6 6h8a6 6 0 0 0 6-6V94"/><path stroke="#000" stroke-linecap="round" stroke-width="12" d="M86 139h20"/></svg>
